!!!!SEGMENT: pl-wtm--r-275-m--005_moniuszko-stanislaw--pienia-zalobne-agnus.krn
!!!cenid: 18xx:2975
!!!COM: Moniuszko, Stanisław
!!!COM-rismid: pe30008351
!!!CDT: 1819/05/05-1872/06/04
!!!CNT: Polish
!!!OPR: Pienia żałobne
!!!OTL: Agnus
!!!OMV: 005
!!!PDT: 1869
!!!AGN: Sacred; Mass
!!!SMS-siglum: PL-Wtm
!!!SMS-shelfmark: R 275/M
!!!SMS-shelfwork: 001-005 M
!!!SMS-variant:
!!!SMS-altvar:
!!!NIFC-rismid: 1001096617
!!!URL-scan: http://repozytorium.nifc.pl/skany/pl-wtm-nut--r275m
!!!ONB-nifc: UWAGA: tylko partytura kwartetu smyczkowego. Części: 1. Kyrie, 2. Graduale,
!!!key:
**kern	**dynam	**kern	**dynam	**kern	**dynam	**kern	**dynam	**kern	**dynam
*group1	*	*group1	*	*group1	*	*group1	*	*group1	*
*part5	*part5	*part4	*part4	*part3	*part3	*part2	*part2	*part1	*part1
*staff5	*	*staff4	*	*staff3	*	*staff2	*	*staff1	*
*Icbass	*	*Icello	*	*Iviola	*	*Ivioln	*	*Ivioln	*
*I"[Contrabassi]	*	*I"[Violoncelli]	*	*I"[Viole]	*	*I"[Violini 2]	*	*I"[Violini 1]	*
*clefF4	*	*clefF4	*	*clefC3	*	*clefG2	*	*clefG2	*
*k[b-]	*	*k[b-]	*	*k[b-]	*	*k[b-]	*	*k[b-]	*
*d:	*	*d:	*	*d:	*	*d:	*	*d:	*
*M2/2	*	*M2/2	*	*M2/2	*	*M2/2	*	*M2/2	*
*met(c|)	*	*met(c|)	*	*met(c|)	*	*met(c|)	*	*met(c|)	*
=1	=1	=1	=1	=1	=1	=1	=1	=1	=1
*all\right	*	*all\right	*	*all\right	*	*all\right	*	*all\right	*
!LO:TX:t=P:problem:all\right:global	!	!LO:TX:t=P:problem:all\right:global	!	!LO:TX:t=P:problem:all\right:global	!	!LO:TX:t=P:problem:all\right:global	!	!LO:TX:t=P:problem:all\right:global	!
!	!	!	!	!	!	!	!	!LO:TX:a:t=na agnus.	!
1r	.	1r	.	1r	.	1r	.	1r	.
=2	=2	=2	=2	=2	=2	=2	=2	=2	=2
1r	.	1r	.	1r	.	1r	.	1r	.
=3	=3	=3	=3	=3	=3	=3	=3	=3	=3
1r	.	1r	.	1r	.	1r	.	1r	.
=4	=4	=4	=4	=4	=4	=4	=4	=4	=4
1r	.	1r	.	1r	.	1r	.	1r	.
=5	=5	=5	=5	=5	=5	=5	=5	=5	=5
1r	.	1r	.	1r	.	1r	.	1r	.
=6	=6	=6	=6	=6	=6	=6	=6	=6	=6
1r	.	1r	.	1r	.	1r	.	1r	.
=7	=7	=7	=7	=7	=7	=7	=7	=7	=7
1r	.	1r	.	1r	.	1r	.	1r	.
=8	=8	=8	=8	=8	=8	=8	=8	=8	=8
1r	.	1r	.	1r	.	1r	.	1r	.
=9	=9	=9	=9	=9	=9	=9	=9	=9	=9
1r	.	1r	.	1r	.	1r	.	1r	.
=10	=10	=10	=10	=10	=10	=10	=10	=10	=10
1r	.	1r	.	1r	.	1r	.	1r	.
=11	=11	=11	=11	=11	=11	=11	=11	=11	=11
1r	.	1r	.	1r	.	1r	.	1r	.
=12	=12	=12	=12	=12	=12	=12	=12	=12	=12
1r	.	1r	.	1r	.	1r	.	1r	.
=13	=13	=13	=13	=13	=13	=13	=13	=13	=13
1r	.	1r	.	1r	.	1r	.	1r	.
=14	=14	=14	=14	=14	=14	=14	=14	=14	=14
1r	.	1r	.	1r	.	1r	.	1r	.
=15	=15	=15	=15	=15	=15	=15	=15	=15	=15
1r	.	1r	.	1r	.	1r	.	1r	.
=16	=16	=16	=16	=16	=16	=16	=16	=16	=16
1r	.	1r	.	1r	.	1r	.	1r	.
=17	=17	=17	=17	=17	=17	=17	=17	=17	=17
1r	.	1r	.	1r	.	1r	.	1r	.
=18	=18	=18	=18	=18	=18	=18	=18	=18	=18
1r	.	1r	.	1r	.	1r	.	1r	.
=19	=19	=19	=19	=19	=19	=19	=19	=19	=19
1r	.	1r	.	1r	.	1r	.	1r	.
=20	=20	=20	=20	=20	=20	=20	=20	=20	=20
1r	.	1r	.	1r	.	1r	.	1r	.
=21	=21	=21	=21	=21	=21	=21	=21	=21	=21
1r	.	1r	.	1r	.	1r	.	1r	.
=22	=22	=22	=22	=22	=22	=22	=22	=22	=22
1r	.	1r	.	1r	.	1r	.	1r	.
=23	=23	=23	=23	=23	=23	=23	=23	=23	=23
1r	.	1r	.	1r	.	1r	.	1r	.
=24	=24	=24	=24	=24	=24	=24	=24	=24	=24
*	*	*	*	*	*	*	*	*^	*
!	!	!	!	!LO:TX:a:t=proszę te małe nutki \nwpisać do każdego głosu.	!	!	!	!LO:TX:a:t=Organ	!	!
1r	.	1r	.	1r	.	1r	.	[>2f#X/	1rf	.
.	.	.	.	.	.	.	.	8f#/L]	.	.
.	.	.	.	.	.	.	.	8a/	.	.
.	.	.	.	.	.	.	.	8dd/	.	.
.	.	.	.	.	.	.	.	8ff#X/J	.	.
=25	=25	=25	=25	=25	=25	=25	=25	=25	=25	=25
1r	.	1r	.	1r	.	1r	.	8aa/L	1rf	.
.	.	.	.	.	.	.	.	8gg/	.	.
.	.	.	.	.	.	.	.	8ff#X/	.	.
.	.	.	.	.	.	.	.	8ee-X/J	.	.
.	.	.	.	.	.	.	.	8dd/L	.	.
.	.	.	.	.	.	.	.	8cc/	.	.
.	.	.	.	.	.	.	.	8b-/	.	.
.	.	.	.	.	.	.	.	8a/J	.	.
=26	=26	=26	=26	=26	=26	=26	=26	=26	=26	=26
1r	.	1r	.	1r	.	1r	.	2b-/	1r	.
.	.	.	.	.	.	.	.	8g/L	.	.
.	.	.	.	.	.	.	.	8b-/	.	.
.	.	.	.	.	.	.	.	8dd/	.	.
.	.	.	.	.	.	.	.	8gg/J	.	.
=27	=27	=27	=27	=27	=27	=27	=27	=27	=27	=27
1r	.	1r	.	1r	.	1r	.	8ff#X/L	1rf	.
.	.	.	.	.	.	.	.	8ee/	.	.
.	.	.	.	.	.	.	.	8cc#X/	.	.
.	.	.	.	.	.	.	.	8b-/J	.	.
.	.	.	.	.	.	.	.	8a/L	.	.
.	.	.	.	.	.	.	.	8g/	.	.
.	.	.	.	.	.	.	.	8d/	.	.
.	.	.	.	.	.	.	.	8e/J	.	.
*	*	*	*	*	*	*	*	*v	*v	*
=28	=28	=28	=28	=28	=28	=28	=28	=28	=28
1r	.	1r	.	1r	.	1r	.	[>2f/	.
.	.	.	.	.	.	.	.	8f/L]	.
.	.	.	.	.	.	.	.	8b-/	.
.	.	.	.	.	.	.	.	8dd/	.
.	.	.	.	.	.	.	.	8ff/J	.
!!LO:LB:g=original
=29	=29	=29	=29	=29	=29	=29	=29	=29	=29
*	*	*	*	*^	*	*	*	*^	*
2r	.	2r	.	2rB	2f/	.	2r	.	2.ee/	2r	.
4r	.	4r	.	4r	2ryy	.	4r	.	.	4r	.
*	*	*clefC4	*	*	*	*	*	*	*	*	*
!LO:TX:b:t=pizzi	!	!LO:TX:b:t=cant&colon;	!	!	!LO:TX:b:t=can	!	!LO:TX:b:t=cant	!	!LO:TX:b:t=cant&colon;	!	!
4A	.	4A\	.	4A/	.	.	4a/	.	4ryy	4a/	.
*	*	*	*	*v	*v	*	*	*	*v	*v	*
=30	=30	=30	=30	=30	=30	=30	=30	=30	=30
!	!	!	!	!	!	!LO:TX:a:t=Col V. 1mo	!	!	!
!	!	!	!	!	!	!LO:TX:t=P:problem:t. 30-46 ukryte	!	!	!
4D	.	(>[>2A\	.	(>[<2A/	.	([2a/yy	.	(>[<2a/	.
4r	.	.	.	.	.	.	.	.	.
!!mixed beam:problem
!	!	!	!	!LO:TX:t=P:problem:mixed beam	!	!LO:TX:t=P:problem:mixed beam	!	!LO:TX:t=P:problem:mixed beam	!
2r	.	8A\L]	.	8A/L]	.	8a\L]yy	.	8a/L]	.
.	.	8f\	.	8f\	.	8ff\yy	.	8ff\	.
.	.	8e\	.	8e\	.	8ee\yy	.	8ee\	.
.	.	8d\J)	.	8d\J)	.	8dd\J)yy	.	8dd\J)	.
=31	=31	=31	=31	=31	=31	=31	=31	=31	=31
*	*	*2\right	*	*2\right	*	*	*	*2\right	*
4E	.	(>[>2c#X\	.	(>[<2c#X\	.	([2cc#X\yy	.	(>[>2cc#X\	.
4r	.	.	.	.	.	.	.	.	.
!!mixed beam:problem
!	!	!	!	!LO:TX:t=P:problem:mixed beam	!	!LO:TX:t=P:problem:mixed beam	!	!LO:TX:t=P:problem:mixed beam	!
2r	.	8c#\L]	.	8c#\L]	.	8cc#\L]yy	.	8cc#\L]	.
.	.	8d\	.	8d\	.	8dd\yy	.	8dd\	.
.	.	8e\	.	8e\	.	8ee\yy	.	8ee\	.
.	.	8A\J)	.	8A/J)	.	8a\J)yy	.	8a/J)	.
=32	=32	=32	=32	=32	=32	=32	=32	=32	=32
4F	.	4..a\	.	4..a\	.	4..aa\yy	.	4..aa\	.
4r	.	.	.	.	.	.	.	.	.
.	.	16g\	.	16g\	.	16gg\yy	.	16gg\	.
2r	.	(>8f\L	.	(>8f\L	.	(8ff\Lyy	.	(>8ff\L	.
.	.	8e\)	.	8e\)	.	8ee\)yy	.	8ee\)	.
.	.	8.d\	.	8.d\	.	8.dd\yy	.	8.dd\	.
.	.	16c\Jk	.	16c\Jk	.	16cc\Jkyy	.	16cc\Jk	.
=33	=33	=33	=33	=33	=33	=33	=33	=33	=33
4.G	.	4.B-\	.	4.B-/	.	4.b-\yy	.	4.b-\	.
!LO:N:vis=4	!	!	!	!	!	!	!	!	!
8r	.	8D/	.	8D/	.	8d/yy	.	8d/	.
2r	.	(>8G\L	.	(<8G/L	.	(8g/Lyy	.	(<8g/L	.
.	.	8B-\	.	8B-/	.	8b-/yy	.	8b-/	.
.	.	8d\)	.	8d/)	.	8dd/)yy	.	8dd/)	.
.	.	8e\J	.	8e/J	.	8ee/Jyy	.	8ee/J	.
=34	=34	=34	=34	=34	=34	=34	=34	=34	=34
4D	.	(>4.f\	.	(>4.f\	.	(4.ff\yy	.	(>4.ff\	.
4r	.	.	.	.	.	.	.	.	.
.	.	8e\	.	8e\	.	8ee\yy	.	8ee\	.
2r	.	8g\L	.	8g\L	.	8gg\Lyy	.	8gg\L	.
.	.	8f\	.	8f\	.	8ff\yy	.	8ff\	.
.	.	8e\	.	8e\	.	8ee\yy	.	8ee\	.
.	.	8d\J)	.	8d\J)	.	8dd\J)yy	.	8dd\J)	.
!!LO:PB:g=original
=35	=35	=35	=35	=35	=35	=35	=35	=35	=35
4E	.	4c\	.	4c\	.	4cc\yy	.	4cc\	.
4r	.	8r	.	8r	.	8ryy	.	8r	.
.	.	8c\	.	8c\	.	8cc\yy	.	8cc\	.
2r	.	(>8e\L	.	(>8e\L	.	(>8ee\Lyy	.	(>8ee\L	.
.	.	8d\	.	8d\	.	8dd\yy	.	8dd\	.
.	.	8c\	.	8c\	.	8cc\yy	.	8cc\	.
.	.	8B-\J)	.	8B-\J)	.	8b-\J)yy	.	8b-\J)	.
=36	=36	=36	=36	=36	=36	=36	=36	=36	=36
4F	.	4.A\	.	4.A/	.	4.a/yy	.	4.a/	.
4r	.	.	.	.	.	.	.	.	.
.	.	8c\	.	8c/	.	8cc\yy	.	8cc\	.
2r	.	(>8F\L	.	(<8F/L	.	(<8f/Lyy	.	(<8f/L	.
.	.	8A\)	.	8A/)	.	8a/)yy	.	8a/)	.
.	.	(>8c\	.	(<8c/	.	(<8cc/yy	.	(<8cc/	.
.	.	8e-X\J)	.	8e-X/J)	.	8ee-X/J)yy	.	8ee-X/J)	.
=37	=37	=37	=37	=37	=37	=37	=37	=37	=37
4BB-	.	4.d\	.	4.d/	.	4.dd\yy	.	4.dd\	.
4r	.	.	.	.	.	.	.	.	.
.	.	8c\	.	8c/	.	8cc\yy	.	8cc\	.
2r	.	(<8B-/L	.	(<8B-/L	.	(<8b-X/Lyy	.	(<8b-X/L	.
.	.	8D/	.	8D/	.	8d/yy	.	8d/	.
.	.	8F/	.	8F/	.	8f/yy	.	8f/	.
.	.	8G/J)	.	8G/J)	.	8g/J)yy	.	8g/J)	.
=38	=38	=38	=38	=38	=38	=38	=38	=38	=38
4D/	.	(>[>2A\	.	(<[<2A/	.	(<[<2a/yy	.	(<[<2a/	.
4r	.	.	.	.	.	.	.	.	.
2r	.	8A\L]	.	8A/L]	.	8a/L]yy	.	8a/L]	.
.	.	8Bn\	.	8Bn/	.	8bn/yy	.	8bn/	.
.	.	8c#X\	.	8c#X/	.	8cc#X/yy	.	8cc#X/	.
.	.	8d\J)	.	8d/J)	.	8dd/J)yy	.	8dd/J)	.
=39	=39	=39	=39	=39	=39	=39	=39	=39	=39
*	*	*	*	*	*	*2\right	*	*	*
4C#	.	2e\	.	2e\	.	2ee\yy	.	2ee\	.
4r	.	.	.	.	.	.	.	.	.
2r	.	(>8A\L	<	(>8A\L	<	(>8a\Lyy	<	(>8a\L	<
.	.	8c#X\	.	8c#X\	.	8cc#X\yy	.	8cc#X\	.
.	.	8e\	.	8e\	.	8ee\yy	.	8ee\	.
.	.	8a\J)	[[	8a\J)	[[	8aa\J)yy	[[	8aa\J)	[[
!!LO:LB:g=original
=40	=40	=40	=40	=40	=40	=40	=40	=40	=40
4Cn	.	(>8a^>\L	.	(>8a^>\L	.	(4.aa^\yy	.	(>4.aa^>\	.
.	.	16f#X\L	.	16f#X\L	.	.	.	.	.
.	.	16e-X\JJ)	.	16e-X\JJ)	.	.	.	.	.
4r	.	2c^>\	.	2c^>\	.	.	.	.	.
.	.	.	.	.	.	8ff#X^>/yy	.	8ff#X^>/	.
2r	.	.	.	.	.	8ee-X/L)yy	.	8ee-X/L)	.
.	.	.	.	.	.	8cc^</yy	.	8cc^</	.
.	.	8A/L	.	8A/L	.	8a^</yy	.	8a^</	.
.	.	8F#X/J	.	8F#X/J	.	8f#X^</Jyy	.	8f#X^</J	.
=41	=41	=41	=41	=41	=41	=41	=41	=41	=41
4Cn	.	(<4.D#X/	.	(<4.D#X/	.	(<4.d#X/yy	.	(<4.d#X/	.
4r	.	.	.	.	.	.	.	.	.
.	.	8F#X/)	.	8F#X/)	.	8f#X/)yy	.	8f#X/)	.
2r	.	(>8A\L	.	(<8A/L	.	(>8a\Lyy	.	(>8a\L	.
.	.	8c\	.	8c/	.	8cc\yy	.	8cc\	.
.	.	8d#X\	.	8d#X/	.	8dd#X\yy	.	8dd#X\	.
.	.	8f#X\J)	.	8f#X/J)	.	8ff#X\J)yy	.	8ff#X\J)	.
=42	=42	=42	=42	=42	=42	=42	=42	=42	=42
4BB-X	.	2g\	.	2g\	.	2gg\yy	.	2gg\	.
4r	.	.	.	.	.	.	.	.	.
2r	.	(>8fn\L	.	(>8fn\L	.	(>8ffn\Lyy	.	(>8ffn\L	.
.	.	8e-X\	.	8e-X\	.	8ee-X\yy	.	8ee-X\	.
.	.	8d\	.	8d\	.	8dd\yy	.	8dd\	.
.	.	8c\J)	.	8c\J)	.	8cc\J)yy	.	8cc\J)	.
=43	=43	=43	=43	=43	=43	=43	=43	=43	=43
4AA	.	(>4.c\	.	(>4.c\	.	(>4.cc\yy	.	(>4.cc\	.
4r	.	.	.	.	.	.	.	.	.
.	.	16d\LL	.	16d\LL	.	16dd\LLyy	.	16dd\LL	.
.	.	16c\JJ)	.	16c\JJ)	.	16cc\JJ)yy	.	16cc\JJ)	.
2r	.	(>8Bn\L	.	(>8Bn\L	.	(>8bn\Lyy	.	(>8bn\L	.
.	.	8c\	.	8c\	.	8cc\yy	.	8cc\	.
.	.	8d\	.	8d\	.	8dd\yy	.	8dd\	.
.	.	8e-X\J)	.	8e-X\J)	.	8ee-X\J)yy	.	8ee-X\J)	.
=44	=44	=44	=44	=44	=44	=44	=44	=44	=44
4AA	.	(>4.en^>\	.	(>4.en^>\	.	(>4.een^>\yy	.	(>4.een^>\	.
4r	.	.	.	.	.	.	.	.	.
.	.	16f#X\LL	.	16f#X\LL	.	16ff#X\LLyy	.	16ff#X\LL	.
.	.	16e\JJ)	.	16e\JJ)	.	16ee\JJ)yy	.	16ee\JJ)	.
2r	.	(>8d#X^>\L	<	(>8d#X\L	<	(>8dd#X\Lyy	<	(>8dd#X\L	<
.	.	8e^>\	.	8e^>\	.	8ee^>\yy	.	8ee^>\	.
.	.	8f#^>\	.	8f#^>\	.	8ff#^>\yy	.	8ff#^>\	.
.	.	8g^>\J)	[[	8g^>\J)	[[	8gg^>\J)yy	[[	8gg^>\J)	[[
!!LO:LB:g=original
=45	=45	=45	=45	=45	=45	=45	=45	=45	=45
!LO:TX:t=arco	!	!	!LO:DY:rj	!	!LO:DY:rj	!	!LO:DY:rj	!	!LO:DY:rj
2BBn	.	4.g^>\	f	4.g^\	f	4.gg^\yy	f	4.gg^>\	f
.	.	8f#X\	.	8f#X\	.	8ff#X\yy	.	8ff#X\	.
2r	.	(>8e\L	.	8e\L	.	(>8ee\Lyy	.	(>8ee\L	.
.	.	8d\	.	8d\	.	8dd\yy	.	8dd\	.
.	.	8A\)	.	8A\	.	8a\yy	.	8a\	.
.	.	8F#X\J	.	8F#X\J	.	8f#X\J)yy	.	8f#X\J)	.
=46	=46	=46	=46	=46	=46	=46	=46	=46	=46
4GG	.	4.G\	>	4.G/	.	4.g/yy	>	4.g/	>
4r	.	.	.	.	.	.	.	.	.
.	.	8A\	.	8A/	.	8a/yy	.	8a/	.
2ryy	.	(>8c#X\L	.	(<8c#X/L	.	(<8cc#X/Lyy	.	(<8cc#X/L	.
!	!	!LO:SIC:v:s:t=Bn	!	!LO:SIC:v:s:t=Bn	!	!	!	!	!
.	.	8B-\	.	8B-/	.	8bn/yy	.	8bn/	.
.	.	8G\)	]	8G/)	.	8g/)yy	]	8g/)	]
.	.	8E\J	.	8E/J	.	8e/Jyy	.	8e/J	.
*	*	*clefF4	*	*	*	*	*	*	*
=47	=47	=47	=47	=47	=47	=47	=47	=47	=47
!	!	!	!LO:DY:rj	!	!LO:DY:rj	!	!	!	!
4AA	.	4.F#X\	p	4.F#X/	p	1A	.	4.d/	.
4r	.	.	.	.	.	.	.	.	.
.	.	8D\	.	8D/	.	.	.	8f#X/	.
2r	.	4G\	.	4G/	.	.	.	8f#/L	.
.	.	.	.	.	.	.	.	8c#X/	.
!LO:TX:b:t=arco	!	!	!	!	!	!	!	!	!
.	.	8F#\L	.	4F#/	.	.	.	8d/	.
.	.	8D\J	.	.	.	.	.	8Bn/J	.
=48	=48	=48	=48	=48	=48	=48	=48	=48	=48
1AA;>^<	.	1AA^<;>	.	1E^<;>	.	1G^<;>	.	1c#X^<;>	.
=49	=49	=49	=49	=49	=49	=49	=49	=49	=49
!	!LO:DY:rj	!	!	!	!LO:DY:rj	!	!LO:DY:rj	!	!
[<1D	pp	1AA	.	[<1F	pp	1d	pp	[>1d	pp
!!LO:PB:g=original
=50	=50	=50	=50	=50	=50	=50	=50	=50	=50
!	!	!	!	!LO:TX:t=P:problem:brak zakończenia ligatury	!	!	!	!LO:TX:t=P:problem:brak zakończenia ligatury	!
1D	.	1D	.	1F]	.	1A	.	1c 1d]	.
=51	=51	=51	=51	=51	=51	=51	=51	=51	=51
1D	.	1D	.	1G	.	1G	.	1B- 1d	.
=52	=52	=52	=52	=52	=52	=52	=52	=52	=52
*2\right	*	*	*	*	*	*	*	*	*
2.D	.	2.D\	.	2G/	.	4.B-/	.	2d/	.
.	.	.	.	.	.	8G/	.	.	.
.	.	.	.	4.E/	.	2A/	.	4c#X/	.
4r	.	4r	.	.	.	.	.	8Bn/L	.
.	.	.	.	8A/	.	.	.	8c#/J	.
=53	=53	=53	=53	=53	=53	=53	=53	=53	=53
[>1D	.	[>1D	.	[>1Fn	.	1A	.	[>1d	.
=54	=54	=54	=54	=54	=54	=54	=54	=54	=54
1D_>	.	1D_>	.	1F]	.	1A	.	1d]	.
=55	=55	=55	=55	=55	=55	=55	=55	=55	=55
1D^>	.	1D^>]	.	2Fn/	.	2A/	.	(<2d/	.
.	.	.	.	4E/	.	4G/	.	4d'</	.
.	.	.	.	4F#X/	.	4A/	.	4d'</	.
=56	=56	=56	=56	=56	=56	=56	=56	=56	=56
2GG	.	2GG/ 2D	.	2G/	.	2Bn/	.	2d/	.
2GG	.	2GG/ 2D	.	2G/	.	2B-X/	.	2d/)	.
=57	=57	=57	=57	=57	=57	=57	=57	=57	=57
!	!	!LO:TX:b:t=SM. I/VII. 69.	!	!	!	!	!	!	!
1D;>	.	1AA;> 1D	.	1F;>	.	1d;>	.	1A;> 1f	.
!!LO:LB:g=original
==	==	==	==	==	==	==	==	==	==
*-	*-	*-	*-	*-	*-	*-	*-	*-	*-
!!!system-decoration: [(g1)]
!!!AIN: 1 cbass 1 cello 1 viola 2 violn
!!!ENC: Marcin Jachim
!!!END: 2021-08-16
!!!EED: Jędrzej Mróz
!!!ESR: 2021-09-15
!!!RDF**kern: > = above
!!!RDF**kern: < = below
